48x48/apps/chrome-cnocophcbjfiimmnhlhleaooedeheifb-Default.svg

<svg viewBox="0 0 48 48"><defs><linearGradient id="linearGradient3764" x1="1" x2="47" gradientUnits="userSpaceOnUse" gradientTransform="matrix(0,-1,1,0,-1.5e-6,47.999998)"><stop stop-color="#c33d43" stop-opacity="1"/><stop offset="1" stop-color="#c84c53" stop-opacity="1"/></linearGradient><clipPath id="clipPath-519776188"><g transform="translate(0,-1004.3622)"><path d="m -24 13 c 0 1.105 -0.672 2 -1.5 2 -0.828 0 -1.5 -0.895 -1.5 -2 0 -1.105 0.672 -2 1.5 -2 0.828 0 1.5 0.895 1.5 2 z" transform="matrix(15.333333,0,0,11.5,414.99999,878.8622)" fill="#1890d0"/></g></clipPath><clipPath id="clipPath-527804481"><g transform="translate(0,-1004.3622)"><path d="m -24 13 c 0 1.105 -0.672 2 -1.5 2 -0.828 0 -1.5 -0.895 -1.5 -2 0 -1.105 0.672 -2 1.5 -2 0.828 0 1.5 0.895 1.5 2 z" transform="matrix(15.333333,0,0,11.5,414.99999,878.8622)" fill="#1890d0"/></g></clipPath></defs><g><path d="m 36.31 5 c 5.859 4.062 9.688 10.831 9.688 18.5 c 0 12.426 -10.07 22.5 -22.5 22.5 c -7.669 0 -14.438 -3.828 -18.5 -9.688 c 1.037 1.822 2.306 3.499 3.781 4.969 c 4.085 3.712 9.514 5.969 15.469 5.969 c 12.703 0 23 -10.298 23 -23 c 0 -5.954 -2.256 -11.384 -5.969 -15.469 c -1.469 -1.475 -3.147 -2.744 -4.969 -3.781 z m 4.969 3.781 c 3.854 4.113 6.219 9.637 6.219 15.719 c 0 12.703 -10.297 23 -23 23 c -6.081 0 -11.606 -2.364 -15.719 -6.219 c 4.16 4.144 9.883 6.719 16.219 6.719 c 12.703 0 23 -10.298 23 -23 c 0 -6.335 -2.575 -12.06 -6.719 -16.219 z" opacity="0.05"/><path d="m 41.28 8.781 c 3.712 4.085 5.969 9.514 5.969 15.469 c 0 12.703 -10.297 23 -23 23 c -5.954 0 -11.384 -2.256 -15.469 -5.969 c 4.113 3.854 9.637 6.219 15.719 6.219 c 12.703 0 23 -10.298 23 -23 c 0 -6.081 -2.364 -11.606 -6.219 -15.719 z" opacity="0.1"/><path d="m 31.25 2.375 c 8.615 3.154 14.75 11.417 14.75 21.13 c 0 12.426 -10.07 22.5 -22.5 22.5 c -9.708 0 -17.971 -6.135 -21.12 -14.75 a 23 23 0 0 0 44.875 -7 a 23 23 0 0 0 -16 -21.875 z" opacity="0.2"/></g><g><path d="m 24 1 c 12.703 0 23 10.297 23 23 c 0 12.703 -10.297 23 -23 23 -12.703 0 -23 -10.297 -23 -23 0 -12.703 10.297 -23 23 -23 z" fill="url(#linearGradient3764)" fill-opacity="1"/></g><g/><g><g clip-path="url(#clipPath-519776188)"><g transform="translate(1,1)"><g opacity="0.1"><!-- color: #c84c53 --><g><path d="m 4.848 9.02 c -0.16 -0.166 -0.581 -1.186 -0.936 -2.267 c -0.553 -1.671 -0.617 -2.01 -0.431 -2.239 c 0.27 -0.34 0.732 -0.351 0.991 -0.022 c 0.109 0.136 0.322 0.67 0.473 1.193 c 0.151 0.519 0.344 0.948 0.43 0.95 c 0.088 0 0.314 -0.474 0.505 -1.055 c 0.589 -1.821 1.213 -1.797 1.858 0.075 c 0.214 0.622 0.442 1.129 0.509 1.129 c 0.066 0 0.249 -0.494 0.407 -1.096 c 0.303 -1.154 0.553 -1.507 1.01 -1.418 c 0.67 0.137 0.667 0.572 -0.015 2.608 c -0.713 2.132 -0.99 2.54 -1.617 2.377 c -0.369 -0.096 -0.664 -0.655 -1.02 -1.925 c -0.127 -0.461 -0.386 -0.17 -0.635 0.713 c -0.341 1.209 -0.936 1.592 -1.525 0.971 m -0.003 0" transform="matrix(3.543307,0,0,3.543307,0,0)" stroke-opacity="1" fill="#000" stroke="#f9f9f9" stroke-linejoin="miter" stroke-linecap="butt" stroke-width="0.564" stroke-miterlimit="4"/><path d="m 17.18 31.961 c -0.559 -0.59 -2.051 -4.203 -3.316 -8.03 c -1.961 -5.922 -2.188 -7.121 -1.527 -7.926 c 0.965 -1.203 2.594 -1.242 3.52 -0.086 c 0.387 0.48 1.137 2.383 1.668 4.227 c 0.535 1.84 1.219 3.359 1.531 3.367 c 0.313 0.004 1.113 -1.676 1.781 -3.738 c 2.086 -6.453 4.297 -6.367 6.582 0.273 c 0.758 2.195 1.566 3.992 1.805 3.992 c 0.234 0 0.883 -1.742 1.441 -3.879 c 1.074 -4.094 1.961 -5.344 3.578 -5.02 c 2.375 0.48 2.363 2.027 -0.055 9.242 c -2.535 7.555 -3.516 9 -5.738 8.422 c -1.309 -0.34 -2.352 -2.32 -3.605 -6.82 c -0.449 -1.629 -1.367 -0.598 -2.25 2.531 c -1.207 4.289 -3.316 5.637 -5.402 3.445 m -0.012 0" fill="#000" stroke="none" fill-rule="nonzero" fill-opacity="1"/></g></g></g></g></g><g><g clip-path="url(#clipPath-527804481)"><!-- color: #c84c53 --><g><path d="m 4.848 9.02 c -0.16 -0.166 -0.581 -1.186 -0.936 -2.267 c -0.553 -1.671 -0.617 -2.01 -0.431 -2.239 c 0.27 -0.34 0.732 -0.351 0.991 -0.022 c 0.109 0.136 0.322 0.67 0.473 1.193 c 0.151 0.519 0.344 0.948 0.43 0.95 c 0.088 0 0.314 -0.474 0.505 -1.055 c 0.589 -1.821 1.213 -1.797 1.858 0.075 c 0.214 0.622 0.442 1.129 0.509 1.129 c 0.066 0 0.249 -0.494 0.407 -1.096 c 0.303 -1.154 0.553 -1.507 1.01 -1.418 c 0.67 0.137 0.667 0.572 -0.015 2.608 c -0.713 2.132 -0.99 2.54 -1.617 2.377 c -0.369 -0.096 -0.664 -0.655 -1.02 -1.925 c -0.127 -0.461 -0.386 -0.17 -0.635 0.713 c -0.341 1.209 -0.936 1.592 -1.525 0.971 m -0.003 0" transform="matrix(3.543307,0,0,3.543307,0,0)" stroke-opacity="1" fill="none" stroke="#f9f9f9" stroke-linejoin="miter" stroke-linecap="butt" stroke-width="0.564" stroke-miterlimit="4"/><path d="m 17.18 31.961 c -0.559 -0.59 -2.051 -4.203 -3.316 -8.03 c -1.961 -5.922 -2.188 -7.121 -1.527 -7.926 c 0.965 -1.203 2.594 -1.242 3.52 -0.086 c 0.387 0.48 1.137 2.383 1.668 4.227 c 0.535 1.84 1.219 3.359 1.531 3.367 c 0.313 0.004 1.113 -1.676 1.781 -3.738 c 2.086 -6.453 4.297 -6.367 6.582 0.273 c 0.758 2.195 1.566 3.992 1.805 3.992 c 0.234 0 0.883 -1.742 1.441 -3.879 c 1.074 -4.094 1.961 -5.344 3.578 -5.02 c 2.375 0.48 2.363 2.027 -0.055 9.242 c -2.535 7.555 -3.516 9 -5.738 8.422 c -1.309 -0.34 -2.352 -2.32 -3.605 -6.82 c -0.449 -1.629 -1.367 -0.598 -2.25 2.531 c -1.207 4.289 -3.316 5.637 -5.402 3.445 m -0.012 0" fill="#f90" stroke="none" fill-rule="nonzero" fill-opacity="1"/></g></g></g><g><path d="m 40.03 7.531 c 3.712 4.084 5.969 9.514 5.969 15.469 0 12.703 -10.297 23 -23 23 c -5.954 0 -11.384 -2.256 -15.469 -5.969 4.178 4.291 10.01 6.969 16.469 6.969 c 12.703 0 23 -10.298 23 -23 0 -6.462 -2.677 -12.291 -6.969 -16.469 z" opacity="0.1"/></g></svg>

<?xml version="1.0" encoding="UTF-8" standalone="no"?>
<svg
   xmlns:dc="http://purl.org/dc/elements/1.1/"
   xmlns:cc="http://creativecommons.org/ns#"
   xmlns:rdf="http://www.w3.org/1999/02/22-rdf-syntax-ns#"
   xmlns:svg="http://www.w3.org/2000/svg"
   xmlns="http://www.w3.org/2000/svg"
   xmlns:sodipodi="http://sodipodi.sourceforge.net/DTD/sodipodi-0.dtd"
   xmlns:inkscape="http://www.inkscape.org/namespaces/inkscape"
   viewBox="0 0 48 48"
   id="svg2"
   version="1.1"
   inkscape:version="0.48.4 r9939"
   width="100%"
   height="100%"
   sodipodi:docname="chrome-cnocophcbjfiimmnhlhleaooedeheifb-Default.svg">
  <metadata
     id="metadata65">
    <rdf:RDF>
      <cc:Work
         rdf:about="">
        <dc:format>image/svg+xml</dc:format>
        <dc:type
           rdf:resource="http://purl.org/dc/dcmitype/StillImage" />
      </cc:Work>
    </rdf:RDF>
  </metadata>
  <sodipodi:namedview
     pagecolor="#ffffff"
     bordercolor="#666666"
     borderopacity="1"
     objecttolerance="10"
     gridtolerance="10"
     guidetolerance="10"
     inkscape:pageopacity="0"
     inkscape:pageshadow="2"
     inkscape:window-width="1440"
     inkscape:window-height="834"
     id="namedview63"
     showgrid="false"
     inkscape:zoom="4.9166667"
     inkscape:cx="-1.4237288"
     inkscape:cy="24"
     inkscape:window-x="0"
     inkscape:window-y="27"
     inkscape:window-maximized="1"
     inkscape:current-layer="svg2" />
  <defs
     id="defs4">
    <linearGradient
       id="linearGradient3764"
       x1="1"
       x2="47"
       gradientUnits="userSpaceOnUse"
       gradientTransform="matrix(0,-1,1,0,-1.5e-6,47.999998)">
      <stop
         stop-color="#c33d43"
         stop-opacity="1"
         id="stop7" />
      <stop
         offset="1"
         stop-color="#c84c53"
         stop-opacity="1"
         id="stop9" />
    </linearGradient>
    <clipPath
       id="clipPath-519776188">
      <g
         transform="translate(0,-1004.3622)"
         id="g12">
        <path
           d="m -24 13 c 0 1.105 -0.672 2 -1.5 2 -0.828 0 -1.5 -0.895 -1.5 -2 0 -1.105 0.672 -2 1.5 -2 0.828 0 1.5 0.895 1.5 2 z"
           transform="matrix(15.333333,0,0,11.5,414.99999,878.8622)"
           fill="#1890d0"
           id="path14" />
      </g>
    </clipPath>
    <clipPath
       id="clipPath-527804481">
      <g
         transform="translate(0,-1004.3622)"
         id="g17">
        <path
           d="m -24 13 c 0 1.105 -0.672 2 -1.5 2 -0.828 0 -1.5 -0.895 -1.5 -2 0 -1.105 0.672 -2 1.5 -2 0.828 0 1.5 0.895 1.5 2 z"
           transform="matrix(15.333333,0,0,11.5,414.99999,878.8622)"
           fill="#1890d0"
           id="path19" />
      </g>
    </clipPath>
    <linearGradient
       id="linearGradient3764-7"
       x1="1"
       x2="47"
       gradientUnits="userSpaceOnUse"
       gradientTransform="matrix(0,-1,1,0,-1.5e-6,47.999998)">
      <stop
         stop-color="#b5945b"
         stop-opacity="1"
         id="stop7-2" />
      <stop
         offset="1"
         stop-color="#bb9e69"
         stop-opacity="1"
         id="stop9-2" />
    </linearGradient>
    <clipPath
       id="clipPath-899834956">
      <g
         transform="translate(0,-1004.3622)"
         id="g12-0">
        <path
           d="m -24 13 c 0 1.105 -0.672 2 -1.5 2 -0.828 0 -1.5 -0.895 -1.5 -2 0 -1.105 0.672 -2 1.5 -2 0.828 0 1.5 0.895 1.5 2 z"
           transform="matrix(15.333333,0,0,11.5,414.99999,878.8622)"
           fill="#1890d0"
           id="path14-8" />
      </g>
    </clipPath>
    <clipPath
       id="clipPath-909443126">
      <g
         transform="translate(0,-1004.3622)"
         id="g17-7">
        <path
           d="m -24 13 c 0 1.105 -0.672 2 -1.5 2 -0.828 0 -1.5 -0.895 -1.5 -2 0 -1.105 0.672 -2 1.5 -2 0.828 0 1.5 0.895 1.5 2 z"
           transform="matrix(15.333333,0,0,11.5,414.99999,878.8622)"
           fill="#1890d0"
           id="path19-5" />
      </g>
    </clipPath>
    <clipPath
       id="clipPath-909443126-7">
      <g
         transform="translate(0,-1004.3622)"
         id="g17-2">
        <path
           style="fill:#1890d0"
           inkscape:connector-curvature="0"
           d="m -24,13 c 0,1.105 -0.672,2 -1.5,2 -0.828,0 -1.5,-0.895 -1.5,-2 0,-1.105 0.672,-2 1.5,-2 0.828,0 1.5,0.895 1.5,2 z"
           transform="matrix(15.333333,0,0,11.5,414.99999,878.8622)"
           id="path19-3" />
      </g>
    </clipPath>
    <linearGradient
       id="linearGradient3759">
      <stop
         id="stop3761"
         offset="0"
         style="stop-color:#a75e15;stop-opacity:1;" />
      <stop
         id="stop3763"
         offset="1"
         style="stop-color:#ffffff;stop-opacity:0;" />
    </linearGradient>
    <linearGradient
       id="linearGradient3777">
      <stop
         id="stop3779"
         offset="0"
         style="stop-color:#e0dd00;stop-opacity:1;" />
      <stop
         id="stop3781"
         offset="1"
         style="stop-color:#000000;stop-opacity:0;" />
    </linearGradient>
    <clipPath
       id="clipPath-527804481-9">
      <g
         transform="translate(0,-1004.3622)"
         id="g17-9">
        <path
           style="fill:#1890d0"
           inkscape:connector-curvature="0"
           d="m -24,13 c 0,1.105 -0.672,2 -1.5,2 -0.828,0 -1.5,-0.895 -1.5,-2 0,-1.105 0.672,-2 1.5,-2 0.828,0 1.5,0.895 1.5,2 z"
           transform="matrix(15.333333,0,0,11.5,414.99999,878.8622)"
           id="path19-1" />
      </g>
    </clipPath>
  </defs>
  <g
     id="g33" />
  <g
     id="g3089">
    <g
       inkscape:label="shadows"
       id="layer2">
      <rect
         ry="13.03658"
         rx="13.03658"
         y="1"
         x="1"
         height="46"
         width="46"
         id="rect3007"
         style="opacity:0.1;fill:#000000;fill-opacity:1;fill-rule:nonzero;stroke:none" />
      <rect
         style="opacity:0.1;fill:#000000;fill-opacity:1;fill-rule:nonzero;stroke:none"
         id="rect3011"
         width="47"
         height="47"
         x="0.5"
         y="0.5"
         rx="13.319984"
         ry="13.319984" />
      <rect
         style="opacity:0.1;fill:#000000;fill-opacity:1;fill-rule:nonzero;stroke:none"
         id="rect3013"
         width="46.5"
         height="46.5"
         x="0.75"
         y="0.75"
         rx="13.178282"
         ry="13.178282" />
    </g>
    <g
       style="display:inline"
       inkscape:label="background-color"
       id="layer1">
      <rect
         transform="matrix(0,-1,1,0,0,0)"
         ry="12.753176"
         rx="12.753176"
         y="1.5"
         x="-46.5"
         height="45"
         width="45"
         id="rect2988"
         style="fill:#c33d43;fill-opacity:1;fill-rule:nonzero;stroke:none" />
    </g>
  </g>
  <g
     transform="translate(-0.00694784,0.01190216)"
     id="g49-2">
    <g
       clip-path="url(#clipPath-527804481-9)"
       id="g51-5">
      <!-- color: #c84c53 -->
      <g
         id="g53-0">
        <path
           style="fill:none;stroke:#f9f9f9;stroke-width:0.56400001;stroke-linecap:butt;stroke-linejoin:miter;stroke-miterlimit:4;stroke-opacity:1"
           inkscape:connector-curvature="0"
           d="M 4.848,9.02 C 4.688,8.854 4.267,7.834 3.912,6.753 3.359,5.082 3.295,4.743 3.481,4.514 3.751,4.174 4.213,4.163 4.472,4.492 4.581,4.628 4.794,5.162 4.945,5.685 5.096,6.204 5.289,6.633 5.375,6.635 5.463,6.635 5.689,6.161 5.88,5.58 6.469,3.759 7.093,3.783 7.738,5.655 7.952,6.277 8.18,6.784 8.247,6.784 8.313,6.784 8.496,6.29 8.654,5.688 8.957,4.534 9.207,4.181 9.664,4.27 10.334,4.407 10.331,4.842 9.649,6.878 8.936,9.01 8.659,9.418 8.032,9.255 7.663,9.159 7.368,8.6 7.012,7.33 6.885,6.869 6.626,7.16 6.377,8.043 6.036,9.252 5.441,9.635 4.852,9.014 m -0.003,0"
           transform="scale(3.543307,3.543307)"
           stroke-miterlimit="4"
           id="path55-0" />
        <path
           style="fill:#ff9900;fill-opacity:1;fill-rule:nonzero;stroke:none"
           inkscape:connector-curvature="0"
           d="m 17.18,31.961 c -0.559,-0.59 -2.051,-4.203 -3.316,-8.03 -1.961,-5.922 -2.188,-7.121 -1.527,-7.926 0.965,-1.203 2.594,-1.242 3.52,-0.086 0.387,0.48 1.137,2.383 1.668,4.227 0.535,1.84 1.219,3.359 1.531,3.367 0.313,0.004 1.113,-1.676 1.781,-3.738 2.086,-6.453 4.297,-6.367 6.582,0.273 0.758,2.195 1.566,3.992 1.805,3.992 0.234,0 0.883,-1.742 1.441,-3.879 1.074,-4.094 1.961,-5.344 3.578,-5.02 2.375,0.48 2.363,2.027 -0.055,9.242 -2.535,7.555 -3.516,9 -5.738,8.422 -1.309,-0.34 -2.352,-2.32 -3.605,-6.82 -0.449,-1.629 -1.367,-0.598 -2.25,2.531 -1.207,4.289 -3.316,5.637 -5.402,3.445 m -0.012,0"
           id="path57-8" />
      </g>
    </g>
  </g>
</svg>
